svgs/sharp-solid/circle-h.svg

<svg xmlns="http://www.w3.org/2000/svg" viewBox="0 0 512 512"><!--! Font Awesome Pro 6.6.0 by @fontawesome - https://fontawesome.com License - https://fontawesome.com/license (Commercial License) Copyright 2024 Fonticons, Inc. --><path d="M256 512A256 256 0 1 0 256 0a256 256 0 1 0 0 512zM368 152l0 104 0 104 0 24-48 0 0-24 0-80-128 0 0 80 0 24-48 0 0-24 0-80 0-48 0-80 0-24 48 0 0 24 0 80 128 0 0-80 0-24 48 0 0 24z"/></svg>

<svg xmlns="http://www.w3.org/2000/svg" viewBox="0 0 512 512"><!--! Font Awesome Pro 6.4.2 by @fontawesome - https://fontawesome.com License - https://fontawesome.com/license (Commercial License) Copyright 2023 Fonticons, Inc. --><path d="M256 512A256 256 0 1 0 256 0a256 256 0 1 0 0 512zM368 152V256 360v24H320V360 280H192l0 80v24H144V360l0-80V232 152 128h48v24 80H320V152 128h48v24z"/></svg>
